src/images/crypto-icon-svg/ubq.svg

<svg xmlns="http://www.w3.org/2000/svg" width="32" height="32" viewBox="0 0 32 32">
  <g fill="none" fill-rule="evenodd">
    <circle cx="16" cy="16" r="16" fill="#00EA90"/>
    <path fill="#FFF" fill-opacity=".698" fill-rule="nonzero" d="M18.214969,7.50782779 L25.9917798,11.5756387 L18.4990433,16.1693053 L18.214969,7.50782779 Z M13.785031,24.4491194 L6.0084144,20.3812076 L13.5009567,15.7874266 L13.785031,24.4491194 Z"/>
    <path fill="#FFF" fill-rule="nonzero" d="M25.9917839,20.6786595 L15.1788407,27 L15.1788407,18.1311155 L25.9917839,11.5755675 L25.9917839,20.6786595 Z M6.00821609,11.2782877 L16.8211593,5 L16.8211593,13.8343346 L6.00821609,20.3813796 L6.00821609,11.2782877 Z"/>
  </g>
</svg>

<svg xmlns="http://www.w3.org/2000/svg" width="32" height="32"><g fill="none" fill-rule="evenodd"><circle cx="16" cy="16" r="16" fill="#00EA90"/><path fill="#FFF" fill-opacity=".698" fill-rule="nonzero" d="M18.215 7.508l7.777 4.068-7.493 4.593-.284-8.661zm-4.43 16.941l-7.777-4.068 7.493-4.594.284 8.662z"/><path fill="#FFF" fill-rule="nonzero" d="M25.992 20.679L15.179 27v-8.869l10.813-6.555v9.103zm-19.984-9.4L16.821 5v8.834L6.008 20.381v-9.103z"/></g></svg>
